desc:4-in-1-out Modulator
author: Saxmand
version: 1.0
changelog: Initial release
provides: 
  [effect] Saxmand JSFX/FX Modulator Linking/4-in-1-out Modulator

/**
 * JSFX : 4-in-1-out Modulator
 * Author: Jesper Ankarfeldt
 * Reaper forum : 
 * Licence: GPL v3
 * REAPER: 7.0
 * Version: 10 (2024-11-14)
 */

slider1:0<0,1,0.001>Output  

slider2:0<0,1,0.001>Input1
slider3:0<0,1,0.001>Input2
slider4:0<0,1,0.001>Input3
slider5:0<0,1,0.001>Input4

options:no_meter

@init

@slider
out = slider2 + slider3 + slider4 + slider5;  
out < 0 ? out = 0;
out > 1 ? out = 1;
slider1 = out;


@gfx
gfx_h = 300; // Height in pixels
gfx_set(1, 1, 1, 0.15);
gfx_rect(0, 0, gfx_w, gfx_h);
gfx_setfont(1, "Arial", 16); // Font slot 1 with custom font and size
gfx_set(1, 1, 1, 1); // Set color to white (RGBA: 1, 1, 1, 1)

function drawCenteredText(text, posY) (
    w = h = 0;
    gfx_measurestr(text, w, h);
    gfx_x = (gfx_w - w) / 2;
    gfx_y = posY;
    gfx_printf(text);
);

drawCenteredText("This plugin is part of ''Saxmand_FX Modulator Linking''.", 10);
drawCenteredText("The script helps working with modulators.", 30);
drawCenteredText("Run the script to map and adjust parameters.",50);
